X: 35
T: Steal-partner Dance Song (a)
C: Anon.
%%abc-version 2.0
%%abcx-abcm2ps-target-version 5.9.1 (29 Sep 2008)
%%abc-creator hum2abc beta
%%abcx-conversion-date 2020/08/10 20:56:09
%%abc-copyright Electronic Copyright 2000 David Huron
%%abc-edited-by David Huron
%%abcx-initial-encoding-date August 28, 2000
%%humdrum-veritas 3270433080
%%humdrum-veritas-data 612795587
%%linebreak <none>
%%barnumbers 0
L: 1/8
M: 2/4
Q: 1/4=80
K: Ab clef=bass
A,G,A,2 | 
C2B,2[M:3/8] | 
A,2A,[M:2/4] | 
F,3E, | 
F,F,F,2 | 
E,C, C, z[M:5/8] | 
G,2G,F,G,[M:2/4] | 
F,3E, | 
F,F,F,2 | 
E,C, C, z[M:5/8] | 
F,2F,F,A,[M:2/4] | 
F,3E, | 
F,F,F,2 | 
E,C, C, z[M:5/8] | 
G,2G,F,G,[M:2/4] | 
F,3E, | 
F,F,F,2 | 
E,C, C, z[M:5/8] | 
F,2F,F,A,[M:2/4] | 
F,4[M:5/8] ]|:  
 [K:E] =F,F,F,2=C[M:2/4] ||  
(3A,=G,A, G,3/ =F,/ [I:setbarnb 23]| 
=F,2z A, | 
(3A,=G,A, G,3/ G,/ | 
=F,4 | 
=D,=C,D,2[M:5/8] | 
 [K:Ab] G,2G,F,G,[M:2/4] | 
F,3E, | 
F,F,F,2 | 
D,C,D,2[M:5/8] | 
F,2F,F,G,[M:2/4] | 
F,2z2 | 
F,F,F,2 |]  
G,G,G,2 [I:setbarnb 35]| 
C2B,2[M:3/8] | 
G,2G,[M:2/4] | 
F,2z2 | 
F,F,F,2 | 
D,C,D,2[M:5/8] | 
G,2G,F,G,[M:2/4] | 
F,3D, | 
F,F,F,2 | 
D,C,D,2[M:5/8] | 
F,2F,F,G,[M:2/4] | 
F,2z2 :|]  


